src/css/fonts/SVGs/socials/youtube.svg

<?xml version="1.0" encoding="UTF-8"?>
<svg xmlns="http://www.w3.org/2000/svg" xmlns:xlink="http://www.w3.org/1999/xlink" width="48pt" height="48pt" viewBox="0 0 48 48" version="1.1">
<g id="surface1">
<path style=" stroke:none;fill-rule:evenodd;fill:black;fill-opacity:1;" d="M 42.757812 9.003906 C 44.824219 9.558594 46.445312 11.179688 47 13.246094 C 48 16.988281 48 24.800781 48 24.800781 C 48 24.800781 48 32.613281 46.996094 36.355469 C 46.441406 38.421875 44.820312 40.042969 42.753906 40.597656 C 39.011719 41.601562 24 41.601562 24 41.601562 C 24 41.601562 8.988281 41.601562 5.246094 40.597656 C 3.179688 40.042969 1.558594 38.421875 1.003906 36.355469 C 0 32.613281 0 24.800781 0 24.800781 C 0 24.800781 0 16.988281 1.003906 13.246094 C 1.558594 11.179688 3.179688 9.558594 5.246094 9.003906 C 8.988281 8 24 8 24 8 C 24 8 39.011719 8 42.757812 9.003906 Z M 31.675781 24.800781 L 19.199219 32 L 19.199219 17.601562 Z M 31.675781 24.800781 "/>
</g>
</svg>

<svg xmlns="http://www.w3.org/2000/svg" viewBox="0 0 48 48">
  <path d="M42.758 9.004A6.013 6.013 0 0 1 47 13.246c1 3.742 1 11.555 1 11.555s0 7.812-1.004 11.554a6.013 6.013 0 0 1-4.242 4.243C39.012 41.602 24 41.602 24 41.602s-15.012 0-18.754-1.004a6.013 6.013 0 0 1-4.242-4.243C0 32.613 0 24.801 0 24.801s0-7.813 1.004-11.555a6.013 6.013 0 0 1 4.242-4.242C8.988 8 24 8 24 8s15.012 0 18.758 1.004ZM31.676 24.8 19.199 32V17.602Zm0 0" fill-rule="evenodd"/>
</svg>
